X:4658
L:1/8
M:4/4
K:G
"^B" g7 (3g/a/g/ | f7 (3f/a/f/ | e2 e2 efge | B2 e2 efge | dBGB d2 d2 | e2 e2 efge | dcBA GFGA | 
 B2 G2 G2 ||

